dist/images/logo.svg

<svg width="218" height="44" viewBox="0 0 218 44" fill="none" xmlns="http://www.w3.org/2000/svg">
<line x1="23.168" y1="21.9605" x2="22.7974" y2="21.9605" stroke="white" stroke-width="0.0685182"/>
<path d="M44.0836 35.0002V8.45655H61.6584V13.0835H49.6956V19.4084H60.4919V24.0354H49.6956V35.0002H44.0836ZM71.0453 8.45655V35.0002H65.4332V8.45655H71.0453ZM80.9246 8.45655L86.2774 17.5032H86.4848L91.8635 8.45655H98.2013L90.1009 21.7284L98.3828 35.0002H91.9283L86.4848 25.9407H86.2774L80.8339 35.0002H74.4053L82.7132 21.7284L74.5609 8.45655H80.9246ZM118.235 35.3891C116.404 35.3891 114.822 35.0607 113.492 34.404C112.161 33.7474 111.137 32.8574 110.42 31.7341C109.712 30.6022 109.357 29.3407 109.357 27.9496C109.357 26.9127 109.565 25.9925 109.979 25.1889C110.394 24.3854 110.973 23.6466 111.716 22.9726C112.459 22.29 113.323 21.6117 114.308 20.9378L119.454 17.555C120.119 17.1316 120.607 16.6866 120.918 16.2201C121.229 15.7448 121.385 15.2307 121.385 14.6777C121.385 14.1507 121.173 13.6625 120.75 13.2132C120.326 12.7639 119.726 12.5435 118.948 12.5522C118.43 12.5522 117.981 12.6688 117.6 12.9021C117.22 13.1268 116.922 13.4249 116.706 13.7964C116.499 14.1593 116.395 14.5654 116.395 15.0147C116.395 15.5677 116.551 16.1293 116.862 16.6996C117.173 17.2699 117.587 17.8747 118.106 18.5141C118.624 19.1449 119.19 19.8275 119.804 20.5619L132.389 35.0002H126.634L116.136 23.3096C115.445 22.5233 114.753 21.7025 114.062 20.8471C113.38 19.983 112.809 19.0671 112.351 18.0994C111.893 17.123 111.664 16.0645 111.664 14.924C111.664 13.6365 111.962 12.4787 112.559 11.4505C113.163 10.4223 114.01 9.61006 115.099 9.01386C116.188 8.40902 117.458 8.10661 118.909 8.10661C120.326 8.10661 121.549 8.39606 122.577 8.97498C123.614 9.54525 124.409 10.3056 124.962 11.2561C125.524 12.1979 125.805 13.2348 125.805 14.3667C125.805 15.6195 125.494 16.7558 124.871 17.7754C124.258 18.7863 123.394 19.6936 122.279 20.4971L116.862 24.3983C116.127 24.934 115.583 25.4827 115.229 26.0443C114.883 26.5973 114.71 27.1287 114.71 27.6385C114.71 28.2693 114.866 28.8352 115.177 29.3364C115.488 29.8375 115.928 30.235 116.499 30.5288C117.069 30.8139 117.739 30.9565 118.508 30.9565C119.441 30.9565 120.361 30.7448 121.268 30.3214C122.184 29.8894 123.014 29.2802 123.757 28.4939C124.509 27.699 125.109 26.7572 125.558 25.6685C126.008 24.5798 126.232 23.3744 126.232 22.0524H130.807C130.807 23.6768 130.63 25.1414 130.276 26.4461C129.922 27.7422 129.429 28.8741 128.799 29.8418C128.168 30.8009 127.446 31.5872 126.634 32.2007C126.375 32.3649 126.124 32.5204 125.882 32.6673C125.64 32.8142 125.39 32.9697 125.131 33.1339C124.146 33.9288 123.044 34.5034 121.826 34.8577C120.616 35.2119 119.419 35.3891 118.235 35.3891Z" fill="white"/>
<path d="M143.24 35.0002V8.45655H160.815V13.0835H148.852V19.4084H159.648V24.0354H148.852V35.0002H143.24ZM164.59 35.0002V8.45655H170.202V30.3732H181.581V35.0002H164.59ZM190.91 8.45655V35.0002H185.298V8.45655H190.91ZM195.527 35.0002V8.45655H205.999C208.013 8.45655 209.728 8.84105 211.145 9.61006C212.562 10.3704 213.642 11.4289 214.385 12.7855C215.137 14.1334 215.513 15.6887 215.513 17.4513C215.513 19.214 215.132 20.7693 214.372 22.1172C213.612 23.4651 212.51 24.515 211.067 25.2667C209.633 26.0184 207.896 26.3943 205.857 26.3943H199.182V21.8969H204.95C206.03 21.8969 206.92 21.7111 207.62 21.3396C208.328 20.9594 208.855 20.4366 209.201 19.7713C209.555 19.0974 209.732 18.324 209.732 17.4513C209.732 16.57 209.555 15.801 209.201 15.1443C208.855 14.479 208.328 13.9649 207.62 13.602C206.911 13.2304 206.012 13.0447 204.924 13.0447H201.139V35.0002H195.527Z" fill="#00B9BB"/>
<path fill-rule="evenodd" clip-rule="evenodd" d="M0.279297 8.42871V35.3819H7.59668V31.7344L3.90983 27.2394L7.63374 22.5973V24.8533H13.5279V18.9573H7.59668V14.3247H19.2308V8.42871H0.279297Z" fill="#00B9BB"/>
<path fill-rule="evenodd" clip-rule="evenodd" d="M28.375 35.4065V8.45326H21.0576V11.8571L24.7446 16.3522L21.0207 20.9943V18.9819H15.1264V24.8779H21.0576V29.5105H9.42351V35.4065H28.375Z" fill="white"/>
<line x1="26.0244" y1="21.9872" x2="25.6062" y2="21.9872" stroke="white" stroke-width="0.0697098"/>
</svg>

<svg width="218" height="44" fill="none" xmlns="http://www.w3.org/2000/svg"><path stroke="#fff" stroke-width=".069" d="M23.168 21.96h-.371"/><path d="M44.084 35V8.457h17.574v4.627H49.696v6.324h10.796v4.627H49.696V35h-5.612zM71.045 8.457V35h-5.612V8.457h5.612zm9.88 0l5.352 9.046h.208l5.379-9.046H98.2l-8.1 13.271L98.383 35h-6.455l-5.443-9.06h-.208L80.834 35h-6.429l8.308-13.272-8.152-13.271h6.364zm37.31 26.932c-1.831 0-3.413-.328-4.743-.985-1.331-.657-2.355-1.547-3.072-2.67-.708-1.132-1.063-2.393-1.063-3.784 0-1.037.208-1.957.622-2.761.415-.804.994-1.542 1.737-2.216a23.15 23.15 0 012.592-2.035l5.146-3.383c.665-.423 1.153-.868 1.464-1.335.311-.475.467-.99.467-1.542 0-.527-.212-1.016-.635-1.465-.424-.45-1.024-.67-1.802-.66-.518 0-.967.116-1.348.35-.38.224-.678.522-.894.893a2.415 2.415 0 00-.311 1.219c0 .553.156 1.114.467 1.685.311.57.725 1.175 1.244 1.814.518.63 1.084 1.314 1.698 2.048L132.389 35h-5.755l-10.498-11.69a77.616 77.616 0 01-2.074-2.463 14.305 14.305 0 01-1.711-2.748 7.383 7.383 0 01-.687-3.175c0-1.287.298-2.445.895-3.473.604-1.029 1.451-1.84 2.54-2.437 1.089-.605 2.359-.907 3.81-.907 1.417 0 2.64.29 3.668.868 1.037.57 1.832 1.33 2.385 2.281.562.942.843 1.979.843 3.11 0 1.254-.311 2.39-.934 3.41-.613 1.01-1.477 1.918-2.592 2.721l-5.417 3.901c-.735.536-1.279 1.085-1.633 1.646-.346.553-.519 1.085-.519 1.595 0 .63.156 1.196.467 1.697a3.28 3.28 0 001.322 1.193c.57.285 1.24.427 2.009.427.933 0 1.853-.211 2.76-.635a8.262 8.262 0 002.489-1.827 9.126 9.126 0 001.801-2.825c.45-1.09.674-2.295.674-3.617h4.575c0 1.625-.177 3.09-.531 4.394-.354 1.296-.847 2.428-1.477 3.396-.631.959-1.353 1.745-2.165 2.359-.259.164-.51.32-.752.466-.242.147-.492.303-.751.467a9.386 9.386 0 01-3.305 1.724c-1.21.354-2.407.531-3.591.531z" fill="#fff"/><path d="M143.24 35V8.457h17.575v4.627h-11.963v6.324h10.796v4.627h-10.796V35h-5.612zm21.35 0V8.457h5.612v21.916h11.379V35H164.59zm26.32-26.543V35h-5.612V8.457h5.612zM195.527 35V8.457h10.472c2.014 0 3.729.384 5.146 1.153 1.417.76 2.497 1.819 3.24 3.176.752 1.347 1.128 2.903 1.128 4.665 0 1.763-.381 3.318-1.141 4.666-.76 1.348-1.862 2.398-3.305 3.15-1.434.751-3.171 1.127-5.21 1.127h-6.675v-4.497h5.768c1.08 0 1.97-.186 2.67-.557.708-.38 1.235-.903 1.581-1.569.354-.674.531-1.447.531-2.32 0-.881-.177-1.65-.531-2.307-.346-.665-.873-1.18-1.581-1.542-.709-.372-1.608-.557-2.696-.557h-3.785V35h-5.612z" fill="#00B9BB"/><path fill-rule="evenodd" clip-rule="evenodd" d="M.28 8.429v26.953h7.317v-3.648L3.91 27.24l3.724-4.642v2.256h5.894v-5.896H7.597v-4.632H19.23V8.429H.279z" fill="#00B9BB"/><path fill-rule="evenodd" clip-rule="evenodd" d="M28.375 35.407V8.453h-7.317v3.404l3.687 4.495-3.724 4.642v-2.012h-5.895v5.896h5.932v4.633H9.424v5.896h18.951z" fill="#fff"/><path stroke="#fff" stroke-width=".07" d="M26.024 21.987h-.418"/></svg>
